lugar/img/hero_decor01.svg

<svg width="23" height="25" viewBox="0 0 23 25" fill="none" xmlns="http://www.w3.org/2000/svg">
<path fill-rule="evenodd" clip-rule="evenodd" d="M15.1838 23.3299C17.3627 22.7185 19.6438 22.41 21.8567 22.1275C22.3334 22.0682 22.7759 22.3988 22.8099 22.8645C22.878 23.3306 22.5374 23.7568 22.0948 23.8161C19.95 24.0881 17.7373 24.3792 15.6606 24.9678C15.218 25.0955 14.7412 24.8326 14.605 24.3805C14.4688 23.9288 14.7412 23.4579 15.1838 23.3299Z" fill="black"/>
<path fill-rule="evenodd" clip-rule="evenodd" d="M8.57954 14.661C12.0861 11.0826 16.0353 7.96485 19.4738 4.29043C19.7802 3.94726 20.3249 3.92888 20.6653 4.24923C21.0058 4.56993 21.0397 5.1092 20.6992 5.45236C17.2607 9.13733 13.3116 12.2653 9.805 15.8543C9.46456 16.1893 8.91998 16.1941 8.57954 15.8645C8.27314 15.5353 8.23909 14.996 8.57954 14.661Z" fill="black"/>
<path fill-rule="evenodd" clip-rule="evenodd" d="M2.00847 0.89733C1.90633 2.94544 1.8044 4.99355 1.70227 7.04201C1.70227 7.51114 1.29354 7.87337 0.816916 7.85056C0.340295 7.82741 5.14984e-05 7.42807 5.14984e-05 6.9586C0.102185 4.90708 0.204118 2.8559 0.306251 0.804728C0.340295 0.335595 0.748893 -0.0242543 1.22551 0.00127899C1.66809 0.0268123 2.04251 0.428538 2.00847 0.89733Z" fill="black"/>
</svg>

<svg width="23" height="25" fill="none" xmlns="http://www.w3.org/2000/svg"><path fill-rule="evenodd" clip-rule="evenodd" d="M15.184 23.33c2.179-.611 4.46-.92 6.673-1.202.476-.06.919.27.953.736a.846.846 0 01-.715.952c-2.145.272-4.358.563-6.434 1.152a.865.865 0 01-1.056-.587.848.848 0 01.579-1.051zM8.58 14.661c3.506-3.578 7.455-6.696 10.894-10.37a.838.838 0 011.191-.042c.34.32.375.86.034 1.203-3.438 3.685-7.387 6.813-10.894 10.402a.878.878 0 01-1.225.01c-.307-.329-.34-.868 0-1.203zM2.008.897l-.306 6.145c0 .47-.408.831-.885.809C.34 7.827 0 7.428 0 6.959L.306.805A.873.873 0 011.226 0a.847.847 0 01.782.896z" fill="#000"/></svg>
